src/assets/secure.svg

<svg fill="none" height="150" viewBox="0 0 150 150" width="150" xmlns="http://www.w3.org/2000/svg"><path d="m128.046 21.9539c-14.188-14.16027-33.0131-21.9539-53.046-21.9539s-38.8584 7.79363-53.0461 21.9539c-14.16027 14.1877-21.9539 33.0132-21.9539 53.0461s7.79363 38.858 21.9539 53.046c14.1603 14.16 33.0132 21.954 53.0461 21.954s38.858-7.794 53.046-21.954c14.16-14.16 21.954-33.0131 21.954-53.046s-7.794-38.8584-21.954-53.0461z" fill="#ffc700"/><g fill="#000"><path d="m76.8111 135.071-39.2151-23.6-.1647-.137c-5.2963-4.117-8.3424-10.346-8.3424-17.0695v-57.2173l47.4204-19.6762 47.4207 19.6762v57.2996c0 6.6682-2.992 12.8432-8.233 16.9872l-.165.137-.192.11zm-35.0164-29.72 34.989 21.049 34.4953-21.021c3.348-2.717 5.241-6.7237 5.241-11.0322v-52.36l-40.0107-16.6027-40.0384 16.6027v52.2777c0 4.3633 1.9484 8.3695 5.3238 11.0865z"/><path d="m74.8353 95.4171-21.5697-18.3041 5.3238-6.2843 15.0934 12.8156 22.0636-27.6619 6.4486 5.1317z"/></g></svg>

<svg width="150" height="150" viewBox="0 0 150 150" fill="none" xmlns="http://www.w3.org/2000/svg">
<path d="M128.046 21.9539C113.858 7.79363 95.0329 0 75 0C54.9671 0 36.1416 7.79363 21.9539 21.9539C7.79363 36.1416 0 54.9671 0 75C0 95.0329 7.79363 113.858 21.9539 128.046C36.1142 142.206 54.9671 150 75 150C95.0329 150 113.858 142.206 128.046 128.046C142.206 113.886 150 95.0329 150 75C150 54.9671 142.206 36.1416 128.046 21.9539Z" fill="#FFC700"/>
<path d="M76.8111 135.071L37.596 111.471L37.4313 111.334C32.135 107.217 29.0889 100.988 29.0889 94.2645V37.0472L76.5093 17.371L123.93 37.0472V94.3468C123.93 101.015 120.938 107.19 115.697 111.334L115.532 111.471L115.34 111.581L76.8111 135.071ZM41.7947 105.351L76.7837 126.4L111.279 105.379C114.627 102.662 116.52 98.6553 116.52 94.3468V41.9868L76.5093 25.3841L36.4709 41.9868V94.2645C36.4709 98.6278 38.4193 102.634 41.7947 105.351Z" fill="black"/>
<path d="M74.8353 95.4171L53.2656 77.113L58.5894 70.8287L73.6828 83.6443L95.7464 55.9824L102.195 61.1141L74.8353 95.4171Z" fill="black"/>
</svg>
